X:936
T:Lag Nan Cruachan
C:Joe Buchanan's Scottish Tome - Page 547.3
I:547 3
Z:Carl Allison
R:Waltz
L:1/4
M:3/4
K:G
D | E2 E | G2 A | d3 | B2 d | e2 f | g2 f | e2 ^c | d2 B | 
A2 G | A2 A | B2 d | ^c2 e | B2 B | A G F | E3 | E2 :|

